X: 20404
T: John Doherty's
R: reel
M: 4/4
K: Gmajor
AG|EAAB c2 BA|GBdc BAGD|EAAB cdef|gedB eAAG|
EAAB c2 BA|GBdc BGGD|EAAB cdef|gedB eAAG||
eaag ed (3Bcd|g2 bg edBd|g2 bg efge|dBgB BAAg|
eaag edBd|g2 bg ed (3Bcd|gabg efge|dBgB cBAG||

